X: 03066
T: PHIL IRELAND'S JIG
C: Bob McQuillen 7 Dec 76
B: Bob's Note Book 03 #66
R: Jig
%D:1976
Z: 2020 John Chambers <jc:trillian.mit.edu>
M: 6/8
L: 1/8
K: D
B \
| A2d ede | fdd dcd | efe ede | fdB A2B |\
| A2d ede | fdd dcd | eAA eag | fdd d2 :|
|: f \
| a2b a2b | afd efg | fga afd | gfg efg |\
| a2b a2b | afd efg | fga gec | edd d2 :|
%%begintext align
%% Here's a tune for a good
%% boy who likes the music.
%%endtext

%%sep 1 1 500

%%sep 1 1 500

